components/Icon/icons/arrowNext.svg

<svg width="50" height="50" viewBox="0 0 50 50" fill="currentColor" xmlns="http://www.w3.org/2000/svg">
<path d="M31 13.28L31.18 13.0675C31.4979 12.7497 31.9195 12.5567 32.3678 12.5236C32.8161 12.4906 33.2614 12.6197 33.6225 12.8875L33.8325 13.0675L44.44 23.675C44.7578 23.9929 44.9508 24.4145 44.9839 24.8628C45.0169 25.3111 44.8878 25.7564 44.62 26.1175L44.44 26.3275L33.8325 36.9325C33.4975 37.2649 33.0495 37.4587 32.5779 37.4754C32.1062 37.492 31.6457 37.3301 31.2881 37.0221C30.9306 36.7141 30.7023 36.2826 30.6489 35.8137C30.5955 35.3448 30.7209 34.873 31 34.4925L31.18 34.2825L38.585 26.875H6.875C6.42191 26.875 5.98415 26.7109 5.64267 26.4131C5.3012 26.1153 5.07912 25.7039 5.0175 25.255L5 25.0025C4.99942 24.549 5.16323 24.1106 5.4611 23.7686C5.75896 23.4266 6.17069 23.2042 6.62 23.1425L6.875 23.125H38.585L31.18 15.72C30.8628 15.4022 30.6702 14.9812 30.6372 14.5334C30.6042 14.0857 30.7329 13.6409 31 13.28L31.18 13.0675L31 13.28Z" fill="currentColor"/>
</svg>

<svg xmlns="http://www.w3.org/2000/svg" viewBox="0 0 50 50" width="100%" height="100%" fill="currentColor" xmlns:v="https://vecta.io/nano"><path d="M31 13.28l.18-.212c.318-.318.739-.511 1.188-.544s.894.096 1.255.364l.21.18L44.44 23.675c.318.318.511.739.544 1.188s-.096.894-.364 1.255l-.18.21-10.607 10.605c-.335.332-.783.526-1.255.543s-.932-.145-1.29-.453-.586-.739-.639-1.208.072-.941.351-1.321l.18-.21 7.405-7.407H6.875c-.453 0-.891-.164-1.232-.462s-.564-.709-.625-1.158L5 25.003c-.001-.454.163-.892.461-1.234s.71-.564 1.159-.626l.255-.017h31.71L31.18 15.72c-.317-.318-.51-.739-.543-1.187s.096-.893.363-1.253l.18-.212-.18.212z" fill="currentColor"/></svg>
